X:1
T:54
L:1/8
Q:1/8=120
M:6/8
K:Bb
V:1 treble nm="Piano" snm="Pno."
V:1
 F>GF B B2- | B3- B3 | B2 c2 c/B/G | G>FC F F2- | F3- F3 | D>FD G G2- | G3- G3 | F2 B2 G/F/D | %8
 C>B,C B,3- | B,3- B,3 | C2 C>B, D2 | FDF G2 B | c>Bc d3- | d3- d3 | d/d/dd c/d/d/c/B | %15
 c/c/cc B/c/c/B/G | GFD C>B,C | D3- D2 G | FGd c>BG/F/ | B B2- B3 |] %20

